public/images/icons/car.svg

<svg width="18" height="18" viewBox="0 0 18 18" fill="none" xmlns="http://www.w3.org/2000/svg">
<path d="M14.25 15H3.75V15.75C3.75 15.9489 3.67098 16.1397 3.53033 16.2803C3.38968 16.421 3.19891 16.5 3 16.5H2.25C2.05109 16.5 1.86032 16.421 1.71967 16.2803C1.57902 16.1397 1.5 15.9489 1.5 15.75V10.125L0.56775 9.8925C0.405565 9.85187 0.261606 9.75821 0.158742 9.62641C0.0558766 9.4946 4.39533e-06 9.3322 0 9.165L0 8.625C0 8.52554 0.0395088 8.43016 0.109835 8.35984C0.180161 8.28951 0.275544 8.25 0.375 8.25H1.5L3.36 3.909C3.47574 3.639 3.66822 3.40893 3.91354 3.24734C4.15886 3.08574 4.44624 2.99974 4.74 3H13.26C13.5535 3.00003 13.8406 3.08617 14.0856 3.24775C14.3306 3.40932 14.5229 3.63924 14.6385 3.909L16.5 8.25H17.625C17.7245 8.25 17.8198 8.28951 17.8902 8.35984C17.9605 8.43016 18 8.52554 18 8.625V9.165C18 9.3322 17.9441 9.4946 17.8413 9.62641C17.7384 9.75821 17.5944 9.85187 17.4323 9.8925L16.5 10.125V15.75C16.5 15.9489 16.421 16.1397 16.2803 16.2803C16.1397 16.421 15.9489 16.5 15.75 16.5H15C14.8011 16.5 14.6103 16.421 14.4697 16.2803C14.329 16.1397 14.25 15.9489 14.25 15.75V15ZM15 13.5V9.75H3V13.5H15ZM4.10775 8.25H13.8923C14.0147 8.24992 14.1354 8.21984 14.2435 8.16239C14.3517 8.10493 14.4442 8.02185 14.5129 7.92041C14.5815 7.81896 14.6243 7.70224 14.6374 7.58045C14.6506 7.45866 14.6337 7.33551 14.5883 7.22175L13.5 4.5H4.5L3.41175 7.22175C3.3663 7.33551 3.34941 7.45866 3.36255 7.58045C3.37569 7.70224 3.41846 7.81896 3.48713 7.92041C3.55579 8.02185 3.64826 8.10493 3.75645 8.16239C3.86464 8.21984 3.98525 8.24992 4.10775 8.25ZM3.75 10.5C5.48775 10.5 6.65925 11.0663 7.2645 12.198C7.2951 12.2551 7.31036 12.3192 7.30879 12.384C7.30723 12.4489 7.28889 12.5121 7.25558 12.5677C7.22226 12.6233 7.1751 12.6694 7.1187 12.7013C7.06229 12.7333 6.99857 12.75 6.93375 12.75H4.5C4.30109 12.75 4.11032 12.671 3.96967 12.5303C3.82902 12.3897 3.75 12.1989 3.75 12V10.5ZM14.25 10.5V12C14.25 12.1989 14.171 12.3897 14.0303 12.5303C13.8897 12.671 13.6989 12.75 13.5 12.75H11.0662C11.0015 12.7499 10.9379 12.733 10.8816 12.701C10.8253 12.669 10.7782 12.623 10.745 12.5674C10.7118 12.5118 10.6935 12.4486 10.692 12.3839C10.6904 12.3191 10.7057 12.2551 10.7362 12.198C11.34 11.0655 12.5115 10.5 14.25 10.5Z" fill="#B1B1B1"/>
</svg>

<svg width="18" height="18" fill="none" xmlns="http://www.w3.org/2000/svg"><path d="M14.25 15H3.75v.75a.75.75 0 01-.75.75h-.75a.75.75 0 01-.75-.75v-5.625l-.932-.232A.75.75 0 010 9.165v-.54a.375.375 0 01.375-.375H1.5l1.86-4.341A1.5 1.5 0 014.74 3h8.52a1.5 1.5 0 011.379.909L16.5 8.25h1.125a.375.375 0 01.375.375v.54a.75.75 0 01-.568.728l-.932.232v5.625a.75.75 0 01-.75.75H15a.75.75 0 01-.75-.75V15zm.75-1.5V9.75H3v3.75h12zM4.108 8.25h9.784a.75.75 0 00.696-1.028L13.5 4.5h-9L3.412 7.222a.75.75 0 00.696 1.028zM3.75 10.5c1.738 0 2.91.566 3.514 1.698a.375.375 0 01-.33.552H4.5a.75.75 0 01-.75-.75v-1.5zm10.5 0V12a.75.75 0 01-.75.75h-2.434a.375.375 0 01-.33-.552c.604-1.133 1.775-1.698 3.514-1.698z" fill="#B1B1B1"/></svg>
